dist/assets/img/catalog-icon-05.svg

<svg width="33" height="19" fill="none" xmlns="http://www.w3.org/2000/svg"><path fill-rule="evenodd" clip-rule="evenodd" d="M23 10h1V6h6v4h1V6h1V3c0-1.7-1.3-3-3-3h-4c-1.7 0-3 1.3-3 3v3h1v4Zm0-7c0-1.1.9-2 2-2h4c1.1 0 2 .9 2 2v2h-8V3Zm8 16h1v-5h-1v5Zm0-9h-8c-1.1 0-2 .9-2 2v2h12v-2c0-1.1-.9-2-2-2Zm1 3H22v-1c0-.6.4-1 1-1h8c.6 0 1 .4 1 1v1ZM0 12h2v7h1v-5h11v5h1v-7h2V8H0v4Zm14 1H3v-1h11v1ZM1 9h15v2H1V9Zm21 10h1v-5h-1v5Z" fill="#000"/></svg>

<svg width="33" height="19" viewBox="0 0 33 19" fill="none" xmlns="http://www.w3.org/2000/svg">
<path fill-rule="evenodd" clip-rule="evenodd" d="M23 10H24V6H30V10H31V6H32V3C32 1.3 30.7 0 29 0H25C23.3 0 22 1.3 22 3V6H23V10ZM23 3C23 1.9 23.9 1 25 1H29C30.1 1 31 1.9 31 3V5H23V3ZM31 19H32V14H31V19ZM31 10H23C21.9 10 21 10.9 21 12V14H33V12C33 10.9 32.1 10 31 10ZM32 13H22V12C22 11.4 22.4 11 23 11H31C31.6 11 32 11.4 32 12V13ZM0 12H2V19H3V14H14V19H15V12H17V8H0V12ZM14 13H3V12H14V13ZM1 9H16V11H1V9ZM22 19H23V14H22V19Z" fill="black"/>
</svg>
